assets/Copyright/Flat/copyright_flat.svg

<svg width="32" height="32" viewBox="0 0 32 32" fill="none" xmlns="http://www.w3.org/2000/svg">
<path d="M18.6594 19.54C18.8794 19.41 19.1194 19.32 19.3794 19.32C20.6894 19.32 21.2194 21.06 20.0794 21.75C19.0294 22.39 17.7994 22.77 16.4794 22.77H16.1894C12.2494 22.77 9.05944 19.43 9.32944 15.42C9.57944 11.77 12.7794 9.01 16.4394 9.01H16.4894C17.6394 9.01 18.7094 9.29 19.6594 9.79C20.8894 10.43 20.4294 12.29 19.0494 12.29C18.8294 12.29 18.6194 12.22 18.4194 12.12C17.8394 11.83 17.1894 11.65 16.4994 11.65H16.2094C13.7294 11.65 11.7394 13.79 11.9894 16.32C12.1994 18.52 14.1794 20.14 16.3994 20.14H16.4994C17.2894 20.14 18.0294 19.92 18.6594 19.54Z" fill="#321B41"/>
<path d="M2 16C2 23.72 8.28 30 16 30C23.72 30 30 23.72 30 16C30 8.28 23.72 2 16 2C8.28 2 2 8.28 2 16ZM5 16C5 9.93 9.93 5 16 5C22.06 5 27 9.93 27 16C27 22.07 22.07 27 16 27C9.93 27 5 22.06 5 16Z" fill="#321B41"/>
</svg>

<svg xmlns="http://www.w3.org/2000/svg" width="32" height="32" fill="none"><path fill="#321B41" d="M18.66 19.54c.22-.13.46-.22.72-.22 1.31 0 1.84 1.74.7 2.43a6.897 6.897 0 0 1-3.6 1.02h-.29c-3.94 0-7.13-3.34-6.86-7.35.25-3.65 3.45-6.41 7.11-6.41h.05c1.15 0 2.22.28 3.17.78 1.23.64.77 2.5-.61 2.5-.22 0-.43-.07-.63-.17-.58-.29-1.23-.47-1.92-.47h-.29c-2.48 0-4.47 2.14-4.22 4.67.21 2.2 2.19 3.82 4.41 3.82h.1c.79 0 1.53-.22 2.16-.6Z"/><path fill="#321B41" d="M2 16c0 7.72 6.28 14 14 14s14-6.28 14-14S23.72 2 16 2 2 8.28 2 16Zm3 0C5 9.93 9.93 5 16 5c6.06 0 11 4.93 11 11s-4.93 11-11 11S5 22.06 5 16Z"/></svg>
